austria/municipalities/40424.svg

<?xml version="1.0" encoding="UTF-8"?>
<!DOCTYPE svg PUBLIC "-//W3C//DTD SVG 1.1//EN" "http://www.w3.org/Graphics/SVG/1.1/DTD/svg11.dtd">
<svg xmlns="http://www.w3.org/2000/svg" version="1.1" width="166px" height="207px" style="shape-rendering:geometricPrecision; text-rendering:geometricPrecision; image-rendering:optimizeQuality; fill-rule:evenodd; clip-rule:evenodd" xmlns:xlink="http://www.w3.org/1999/xlink">
<g><path style="opacity:1" fill="#000000" d="M -0.5,-0.5 C 54.8333,-0.5 110.167,-0.5 165.5,-0.5C 165.5,43.5 165.5,87.5 165.5,131.5C 158.017,171.315 134.684,196.315 95.5,206.5C 86.8333,206.5 78.1667,206.5 69.5,206.5C 29.3806,196.049 6.0473,170.382 -0.5,129.5C -0.5,86.1667 -0.5,42.8333 -0.5,-0.5 Z"/></g>
<g><path style="opacity:1" fill="#006532" d="M 3.5,3.5 C 48.8346,3.33334 94.1679,3.50001 139.5,4C 96.6871,53.7807 53.5204,103.281 10,152.5C 7.01219,146.534 5.01219,140.201 4,133.5C 3.50001,90.1679 3.33334,46.8346 3.5,3.5 Z"/></g>
<g><path style="opacity:1" fill="#fefffe" d="M 142.5,3.5 C 145.518,3.33537 148.518,3.50204 151.5,4C 149.027,6.47295 146.527,8.97295 144,11.5C 140.867,18.2316 138.534,25.2316 137,32.5C 134.642,38.0667 130.809,42.2334 125.5,45C 119.907,47.6335 114.241,49.9668 108.5,52C 106.04,53.4578 103.873,55.2911 102,57.5C 98.0547,67.334 93.7214,77.0006 89,86.5C 83.1291,93.1905 75.9625,98.0238 67.5,101C 65.3911,102.141 63.5578,103.641 62,105.5C 58.7269,112.327 56.0602,119.327 54,126.5C 51.5,129 49,131.5 46.5,134C 40.2096,136.812 34.2096,140.145 28.5,144C 24.2964,149.957 20.463,156.124 17,162.5C 16.2825,163.451 15.4491,163.617 14.5,163C 13.1667,160.667 11.8333,158.333 10.5,156C 55.0764,105.596 99.0764,54.7623 142.5,3.5 Z"/></g>
<g><path style="opacity:1" fill="#003266" d="M 157.5,3.5 C 158.978,3.23798 160.311,3.57131 161.5,4.5C 156.537,8.6313 152.037,13.298 148,18.5C 147.333,20.5 147.333,22.5 148,24.5C 152.706,33.653 154.372,43.3196 153,53.5C 150.949,59.2708 148.616,64.9374 146,70.5C 145.371,73.3109 144.871,76.1443 144.5,79C 146.257,86.9383 148.423,94.7717 151,102.5C 151.667,107.5 151.667,112.5 151,117.5C 148.702,124.359 146.868,131.359 145.5,138.5C 146.982,145.794 149.315,152.794 152.5,159.5C 151.667,161.167 150.833,162.833 150,164.5C 147.372,155.064 144.539,145.731 141.5,136.5C 143.441,127.238 145.774,118.071 148.5,109C 148,105.5 147.5,102 147,98.5C 144.029,91.5849 141.862,84.4182 140.5,77C 142.924,68.3957 145.757,59.8957 149,51.5C 149.667,45.8333 149.667,40.1667 149,34.5C 148.131,31.6697 146.964,29.003 145.5,26.5C 143,32.1667 140.5,37.8333 138,43.5C 135.463,46.372 132.63,48.872 129.5,51C 123.22,53.8184 116.887,56.4851 110.5,59C 109.333,60.1667 108.167,61.3333 107,62.5C 103.008,71.7992 99.0083,81.1325 95,90.5C 92.5,93 90,95.5 87.5,98C 80.5264,100.961 74.0264,104.795 68,109.5C 64.4475,118.029 60.4475,126.363 56,134.5C 48.8882,138.659 41.7215,142.826 34.5,147C 28.6886,152.782 24.5219,159.615 22,167.5C 18.7536,171.546 17.4203,170.879 18,165.5C 21.3005,159.37 24.8005,153.37 28.5,147.5C 34.7092,142.895 41.3759,139.061 48.5,136C 55.4175,129.996 59.5842,122.496 61,113.5C 61.8489,110.439 63.3489,107.772 65.5,105.5C 72.2957,101.866 78.9623,98.0331 85.5,94C 87.3333,92.1667 89.1667,90.3333 91,88.5C 95.4861,78.8645 99.8194,69.1978 104,59.5C 105.833,57.6667 107.667,55.8333 109.5,54C 119.622,51.3586 128.456,46.5253 136,39.5C 139.716,31.0236 143.05,22.357 146,13.5C 148.984,9.10623 152.817,5.77289 157.5,3.5 Z"/></g>
<g><path style="opacity:1" fill="#fefffe" d="M 160.5,8.5 C 161.665,50.6647 161.831,92.998 161,135.5C 159.45,142.817 157.116,149.817 154,156.5C 151.291,150.754 149.458,144.754 148.5,138.5C 150.426,129.299 152.426,120.132 154.5,111C 152.867,99.9732 150.534,89.1399 147.5,78.5C 147.667,76.5 147.833,74.5 148,72.5C 157.414,55.7855 157.914,38.7855 149.5,21.5C 152.873,16.8038 156.54,12.4704 160.5,8.5 Z"/></g>
<g><path style="opacity:1" fill="#000000" d="M 65.5,22.5 C 66.1174,22.6107 66.6174,22.944 67,23.5C 67.6667,27.5 67.6667,31.5 67,35.5C 65.9741,38.2387 64.4741,40.572 62.5,42.5C 61.4075,46.407 58.7408,48.5737 54.5,49C 59.6049,53.3786 59.2716,54.8786 53.5,53.5C 50.9328,54.6636 48.2662,55.3303 45.5,55.5C 45.3343,59.8461 45.501,64.1794 46,68.5C 47.6239,66.8419 49.2906,65.1752 51,63.5C 51.3333,65.1667 51.6667,66.8333 52,68.5C 53.6153,65.5505 55.6153,62.8838 58,60.5C 58.4935,62.1341 58.6602,63.8008 58.5,65.5C 61.6136,64.9087 64.1136,63.242 66,60.5C 66.5996,64.6061 65.433,68.1061 62.5,71C 64.158,71.7253 64.658,72.892 64,74.5C 61.4086,76.8307 58.9086,79.164 56.5,81.5C 56.5198,79.857 55.8532,78.5237 54.5,77.5C 56.9171,76.9278 59.0838,75.9278 61,74.5C 61.4561,73.2559 60.9561,72.4226 59.5,72C 61.8983,70.3644 63.065,68.1977 63,65.5C 61.2111,67.229 59.0444,67.8957 56.5,67.5C 56.6495,66.448 56.4828,65.448 56,64.5C 54.3545,66.6093 53.1878,68.9427 52.5,71.5C 53.7564,71.0962 54.9231,70.4295 56,69.5C 57.2575,69.8499 57.5908,70.5165 57,71.5C 53.458,75.0441 49.6247,78.2108 45.5,81C 48.3508,82.2886 51.3508,82.7886 54.5,82.5C 51.7131,83.4767 48.7131,83.81 45.5,83.5C 45.6658,88.1785 45.4992,92.8452 45,97.5C 43.9335,99.2826 42.4335,99.7826 40.5,99C 39.9415,98.2753 39.6082,97.4419 39.5,96.5C 40.3619,92.5474 40.6952,88.5474 40.5,84.5C 35.8215,84.6658 31.1548,84.4992 26.5,84C 24.0197,83.0846 23.3531,81.5846 24.5,79.5C 21.7805,77.7807 19.7805,75.4474 18.5,72.5C 19.5,71.8333 20.5,71.1667 21.5,70.5C 19.0615,66.7285 19.0615,63.0619 21.5,59.5C 22.4146,61.9179 23.9146,63.9179 26,65.5C 26.3678,64.09 27.2011,63.09 28.5,62.5C 29.684,64.0461 30.684,65.7127 31.5,67.5C 32.8139,66.6872 33.9805,65.6872 35,64.5C 36.1532,67.47 37.8199,70.1367 40,72.5C 40.4994,66.8431 40.6661,61.1764 40.5,55.5C 37.1884,55.851 34.855,54.5177 33.5,51.5C 27.9526,53.1194 27.2859,51.9527 31.5,48C 20.6917,42.1969 18.6917,34.1969 25.5,24C 22.4841,20.0469 23.3175,17.2135 28,15.5C 29.4728,15.9031 30.8061,16.5697 32,17.5C 34.3047,14.3905 36.8047,14.0571 39.5,16.5C 40.9675,15.3047 42.4675,15.3047 44,16.5C 48.2451,13.0748 52.4117,13.4082 56.5,17.5C 58.0983,16.5153 59.765,16.3486 61.5,17C 61.1667,17.3333 60.8333,17.6667 60.5,18C 62.6917,19.0669 64.3583,20.5669 65.5,22.5 Z"/></g>
<g><path style="opacity:1" fill="#fe9900" d="M 32.5,24.5 C 30.7679,19.7323 32.4345,17.2323 37.5,17C 38.1667,18 38.8333,19 39.5,20C 37.2657,21.7498 34.9324,23.2498 32.5,24.5 Z"/></g>
<g><path style="opacity:1" fill="#fe9900" d="M 46.5,16.5 C 48.8568,16.3367 51.1902,16.5034 53.5,17C 54.2922,20.9094 55.9588,21.4094 58.5,18.5C 60.2997,22.092 59.4664,24.7587 56,26.5C 55.0951,22.8317 52.9285,21.4984 49.5,22.5C 46.4903,19.7364 44.3236,20.4031 43,24.5C 41.8684,22.6608 41.0351,20.6608 40.5,18.5C 41.533,17.548 42.6996,17.548 44,18.5C 45.301,18.3613 46.1344,17.6946 46.5,16.5 Z"/></g>
<g><path style="opacity:1" fill="#fe9900" d="M 25.5,17.5 C 31.8363,17.8482 32.1696,19.5148 26.5,22.5C 24.3737,21.0908 24.0404,19.4241 25.5,17.5 Z"/></g>
<g><path style="opacity:1" fill="#fe9900" d="M 32.5,24.5 C 36.8092,27.9341 40.6426,31.9341 44,36.5C 45.1844,44.6489 41.6844,48.1489 33.5,47C 23.8798,43.1666 21.0465,36.3333 25,26.5C 26.6667,24.8333 28.3333,23.1667 30,21.5C 30.2355,23.1193 31.0689,24.1193 32.5,24.5 Z"/></g>
<g><path style="opacity:1" fill="#fe9900" d="M 65.5,22.5 C 67.1577,34.0371 65.8244,34.2038 61.5,23C 61.8333,22.5 62.1667,22 62.5,21.5C 63.4168,22.1272 64.4168,22.4606 65.5,22.5 Z"/></g>
<g><path style="opacity:1" fill="#fe9900" d="M 37.5,22.5 C 41.3184,23.7989 42.8184,26.4655 42,30.5C 39.9205,28.8767 37.7538,27.3767 35.5,26C 36.305,24.8873 36.9717,23.7206 37.5,22.5 Z"/></g>
<g><path style="opacity:1" fill="#fe9900" d="M 45.5,22.5 C 46.4822,23.1408 47.4822,23.8075 48.5,24.5C 50.8696,22.9019 52.5362,23.4019 53.5,26C 51.3997,28.1003 49.2331,30.2669 47,32.5C 46.6667,33.5 46.3333,34.5 46,35.5C 44.1751,31.2379 44.0084,26.9046 45.5,22.5 Z"/></g>
<g><path style="opacity:1" fill="#fe9900" d="M 62.5,42.5 C 58.2064,46.9971 53.2064,47.6638 47.5,44.5C 46.5853,43.6721 45.9186,42.6721 45.5,41.5C 46.2773,37.7225 47.944,34.3892 50.5,31.5C 53.5999,29.4091 56.7666,27.4091 60,25.5C 63.5298,30.7319 64.3631,36.3985 62.5,42.5 Z"/></g>
<g><path style="opacity:1" fill="#fefffe" d="M 144.5,32.5 C 145.558,33.6002 146.392,34.9336 147,36.5C 147.667,40.8333 147.667,45.1667 147,49.5C 143.243,58.5992 140.41,67.9325 138.5,77.5C 141.067,87.9353 143.4,98.4353 145.5,109C 143.024,118.238 141.024,127.571 139.5,137C 140.378,144.581 142.545,151.747 146,158.5C 147.106,162.122 147.439,165.789 147,169.5C 142.721,174.401 138.221,179.068 133.5,183.5C 132.667,142.837 132.167,102.171 132,61.5C 97.6667,101.5 63.3333,141.5 29,181.5C 26.128,178.963 23.628,176.13 21.5,173C 25.4696,161.723 32.1363,152.389 41.5,145C 48.7254,142.807 54.892,138.974 60,133.5C 63.3333,126.167 66.6667,118.833 70,111.5C 76.2529,107.289 82.7529,103.455 89.5,100C 94.6853,95.7786 98.5187,90.6119 101,84.5C 102.915,76.5742 106.082,69.2408 110.5,62.5C 118.611,58.9447 126.611,55.1113 134.5,51C 139.813,45.8872 143.146,39.7205 144.5,32.5 Z"/></g>
<g><path style="opacity:1" fill="#fe9900" d="M 44.5,45.5 C 48.4307,46.4072 48.4307,47.5739 44.5,49C 42.9262,49.6987 41.5929,49.3654 40.5,48C 42.3197,47.7996 43.653,46.9663 44.5,45.5 Z"/></g>
<g><path style="opacity:1" fill="#fe9900" d="M 33.5,51.5 C 33.3893,50.8826 33.056,50.3826 32.5,50C 36.1734,48.3132 39.6734,48.8132 43,51.5C 46.6974,49.0702 50.5308,48.9035 54.5,51C 51.6288,51.1308 49.2954,52.2975 47.5,54.5C 46.1667,53.8333 44.8333,53.1667 43.5,52.5C 42.1667,53.1667 40.8333,53.8333 39.5,54.5C 37.6984,53.0144 35.6984,52.0144 33.5,51.5 Z"/></g>
<g><path style="opacity:1" fill="#fe9900" d="M 52.5,71.5 C 49.8928,74.6102 47.0595,77.6102 44,80.5C 42.531,104.304 41.531,104.304 41,80.5C 38.9129,79.6028 36.7463,78.9361 34.5,78.5C 35.343,80.1733 36.6763,81.34 38.5,82C 34.4471,83.9395 30.4471,83.7728 26.5,81.5C 27.1667,80.5 27.8333,79.5 28.5,78.5C 25.4883,77.9976 23.155,76.4976 21.5,74C 23.0441,73.7104 24.3774,73.0437 25.5,72C 22.9693,70.0505 21.8026,67.5505 22,64.5C 23.3513,66.019 24.8513,67.3523 26.5,68.5C 27.2508,67.624 27.7508,66.624 28,65.5C 29.2899,67.792 30.9565,69.792 33,71.5C 33.2896,69.9559 33.9563,68.6226 35,67.5C 36.2557,71.0503 38.2557,74.0503 41,76.5C 42.0603,69.2193 42.8936,61.8859 43.5,54.5C 43.6528,61.7802 43.8194,69.1136 44,76.5C 45.2933,73.281 46.9599,70.281 49,67.5C 49.5946,68.8989 49.4279,70.2322 48.5,71.5C 49.8084,72.6256 51.1417,72.6256 52.5,71.5 Z"/></g>
<g><path style="opacity:1" fill="#fe9900" d="M 56.5,81.5 C 55.5084,81.3284 54.8417,81.6618 54.5,82.5C 51.3508,82.7886 48.3508,82.2886 45.5,81C 49.6247,78.2108 53.458,75.0441 57,71.5C 57.5908,70.5165 57.2575,69.8499 56,69.5C 54.9231,70.4295 53.7564,71.0962 52.5,71.5C 53.1878,68.9427 54.3545,66.6093 56,64.5C 56.4828,65.448 56.6495,66.448 56.5,67.5C 59.0444,67.8957 61.2111,67.229 63,65.5C 63.065,68.1977 61.8983,70.3644 59.5,72C 60.9561,72.4226 61.4561,73.2559 61,74.5C 59.0838,75.9278 56.9171,76.9278 54.5,77.5C 55.8532,78.5237 56.5198,79.857 56.5,81.5 Z"/></g>
<g><path style="opacity:1" fill="#006632" d="M 128.5,68.5 C 129.665,107.998 129.831,147.665 129,187.5C 108.329,202.692 85.4959,206.859 60.5,200C 49.2969,196.465 39.2969,190.798 30.5,183C 63.5298,145.081 96.1964,106.915 128.5,68.5 Z"/></g>
<g><path style="opacity:1" fill="#000000" d="M 34.5,78.5 C 30.8997,77.527 28.2331,75.3603 26.5,72C 29.8049,73.1143 32.4716,75.2809 34.5,78.5 Z"/></g>
<g><path style="opacity:1" fill="#fefffe" d="M -0.5,129.5 C 6.0473,170.382 29.3806,196.049 69.5,206.5C 46.1667,206.5 22.8333,206.5 -0.5,206.5C -0.5,180.833 -0.5,155.167 -0.5,129.5 Z"/></g>
<g><path style="opacity:1" fill="#fefffe" d="M 165.5,131.5 C 165.5,156.5 165.5,181.5 165.5,206.5C 142.167,206.5 118.833,206.5 95.5,206.5C 134.684,196.315 158.017,171.315 165.5,131.5 Z"/></g>
</svg>

<svg xmlns="http://www.w3.org/2000/svg" width="166" height="207" style="shape-rendering:geometricPrecision;text-rendering:geometricPrecision;image-rendering:optimizeQuality;fill-rule:evenodd;clip-rule:evenodd"><path style="opacity:1" d="M-.5-.5h166v132c-7.483 39.815-30.816 64.815-70 75h-26c-40.12-10.451-63.453-36.118-70-77V-.5z"/><path style="opacity:1" fill="#006532" d="M3.5 3.5c45.335-.167 90.668 0 136 .5A14340.617 14340.617 0 0 1 10 152.5c-2.988-5.966-4.988-12.299-6-19-.5-43.332-.667-86.665-.5-130z"/><path style="opacity:1" fill="#fefffe" d="M142.5 3.5a40.94 40.94 0 0 1 9 .5l-7.5 7.5a97.153 97.153 0 0 0-7 21c-2.358 5.567-6.191 9.733-11.5 12.5a184.378 184.378 0 0 1-17 7 25.549 25.549 0 0 0-6.5 5.5 398.548 398.548 0 0 1-13 29c-5.87 6.69-13.037 11.524-21.5 14.5a18.776 18.776 0 0 0-5.5 4.5 134.192 134.192 0 0 0-8 21l-7.5 7.5a118.613 118.613 0 0 0-18 10A186.197 186.197 0 0 0 17 162.5c-.718.951-1.55 1.117-2.5.5l-4-7a9460.671 9460.671 0 0 0 132-152.5z"/><path style="opacity:1" fill="#003266" d="M157.5 3.5c1.478-.262 2.811.071 4 1a89.696 89.696 0 0 0-13.5 14c-.667 2-.667 4 0 6 4.706 9.153 6.372 18.82 5 29a187.355 187.355 0 0 1-7 17 94.884 94.884 0 0 0-1.5 8.5 234.313 234.313 0 0 0 6.5 23.5c.667 5 .667 10 0 15a161.94 161.94 0 0 0-5.5 21 91 91 0 0 0 7 21l-2.5 5a630.383 630.383 0 0 0-8.5-28 332.41 332.41 0 0 1 7-27.5L147 98.5a100.074 100.074 0 0 1-6.5-21.5 285.865 285.865 0 0 1 8.5-25.5 72.464 72.464 0 0 0 0-17 37.708 37.708 0 0 0-3.5-8l-7.5 17a45.255 45.255 0 0 1-8.5 7.5 441.062 441.062 0 0 1-19 8l-3.5 3.5c-3.992 9.3-7.992 18.632-12 28L87.5 98A86.504 86.504 0 0 0 68 109.5a262.687 262.687 0 0 1-12 25A4888.92 4888.92 0 0 1 34.5 147c-5.811 5.782-9.978 12.615-12.5 20.5-3.246 4.046-4.58 3.379-4-2 3.3-6.13 6.8-12.13 10.5-18a99.2 99.2 0 0 1 20-11.5c6.917-6.004 11.084-13.504 12.5-22.5.849-3.061 2.349-5.728 4.5-8a373.922 373.922 0 0 0 20-11.5l5.5-5.5a1106.58 1106.58 0 0 0 13-29l5.5-5.5c10.122-2.641 18.956-7.475 26.5-14.5a303.91 303.91 0 0 0 10-26c2.984-4.394 6.817-7.727 11.5-10z"/><path style="opacity:1" fill="#fefffe" d="M160.5 8.5a2692.19 2692.19 0 0 1 .5 127 97.184 97.184 0 0 1-7 21 65.115 65.115 0 0 1-5.5-18 1657.73 1657.73 0 0 1 6-27.5 254.167 254.167 0 0 0-7-32.5l.5-6c9.414-16.715 9.914-33.715 1.5-51a105.59 105.59 0 0 1 11-13z"/><path style="opacity:1" d="M65.5 22.5c.617.11 1.117.444 1.5 1 .667 4 .667 8 0 12-1.026 2.739-2.526 5.072-4.5 7-1.093 3.907-3.76 6.074-8 6.5 5.105 4.379 4.772 5.879-1 4.5a22.576 22.576 0 0 1-8 2c-.166 4.346.001 8.68.5 13a344.583 344.583 0 0 1 5-5l1 5a35.085 35.085 0 0 1 6-8c.493 1.634.66 3.3.5 5 3.114-.591 5.614-2.258 7.5-5 .6 4.106-.567 7.606-3.5 10.5 1.658.725 2.158 1.892 1.5 3.5a272.804 272.804 0 0 0-7.5 7c.02-1.643-.647-2.976-2-4 2.417-.572 4.584-1.572 6.5-3 .456-1.244-.044-2.077-1.5-2.5 2.398-1.636 3.565-3.802 3.5-6.5-1.789 1.729-3.956 2.396-6.5 2a4.932 4.932 0 0 0-.5-3 19.515 19.515 0 0 0-3.5 7c1.256-.404 2.423-1.07 3.5-2 1.258.35 1.59 1.016 1 2A77.994 77.994 0 0 1 45.5 81c2.85 1.289 5.85 1.789 9 1.5-2.787.977-5.787 1.31-9 1 .166 4.678 0 9.345-.5 14-1.066 1.783-2.566 2.283-4.5 1.5a4.938 4.938 0 0 1-1-2.5 45.74 45.74 0 0 0 1-12c-4.678.166-9.345 0-14-.5-2.48-.915-3.147-2.415-2-4.5-2.72-1.72-4.72-4.053-6-7l3-2c-2.439-3.772-2.439-7.438 0-11 .915 2.418 2.415 4.418 4.5 6 .368-1.41 1.201-2.41 2.5-3a25.86 25.86 0 0 1 3 5 14.974 14.974 0 0 0 3.5-3 25.104 25.104 0 0 0 5 8c.5-5.657.666-11.324.5-17-3.312.351-5.645-.982-7-4-5.547 1.62-6.214.453-2-3.5-10.808-5.803-12.808-13.803-6-24-3.016-3.953-2.183-6.787 2.5-8.5a11.292 11.292 0 0 1 4 2c2.305-3.11 4.805-3.443 7.5-1 1.468-1.195 2.968-1.195 4.5 0 4.245-3.425 8.412-3.092 12.5 1 1.598-.985 3.265-1.151 5-.5l-1 1c2.192 1.067 3.858 2.567 5 4.5z"/><path style="opacity:1" fill="#fe9900" d="M32.5 24.5c-1.732-4.768-.066-7.268 5-7.5l2 3a43.865 43.865 0 0 1-7 4.5zM46.5 16.5c2.357-.163 4.69.003 7 .5.792 3.91 2.459 4.41 5 1.5 1.8 3.592.966 6.259-2.5 8-.905-3.668-3.072-5.002-6.5-4-3.01-2.764-5.176-2.097-6.5 2a21.01 21.01 0 0 1-2.5-6c1.033-.952 2.2-.952 3.5 0 1.301-.139 2.134-.805 2.5-2z"/><path style="opacity:1" fill="#fe9900" d="M25.5 17.5c6.336.348 6.67 2.015 1 5-2.126-1.41-2.46-3.076-1-5zM32.5 24.5c4.31 3.434 8.143 7.434 11.5 12 1.184 8.149-2.316 11.649-10.5 10.5-9.62-3.833-12.453-10.667-8.5-20.5l5-5c.235 1.62 1.069 2.62 2.5 3zM65.5 22.5c1.658 11.537.324 11.704-4 .5l1-1.5c.917.627 1.917.96 3 1zM37.5 22.5c3.818 1.299 5.318 3.965 4.5 8a69.049 69.049 0 0 0-6.5-4.5 18.492 18.492 0 0 0 2-3.5zM45.5 22.5a186.2 186.2 0 0 1 3 2c2.37-1.598 4.036-1.098 5 1.5L47 32.5l-1 3c-1.825-4.262-1.992-8.595-.5-13zM62.5 42.5c-4.294 4.497-9.294 5.164-15 2a7.291 7.291 0 0 1-2-3 21.33 21.33 0 0 1 5-10c3.1-2.09 6.267-4.09 9.5-6 3.53 5.232 4.363 10.898 2.5 17z"/><path style="opacity:1" fill="#fefffe" d="M144.5 32.5c1.058 1.1 1.892 2.434 2.5 4a42.479 42.479 0 0 1 0 13 150.308 150.308 0 0 0-8.5 28 717.279 717.279 0 0 1 7 31.5 281.711 281.711 0 0 0-6 28c.878 7.581 3.045 14.747 6.5 21.5 1.106 3.622 1.439 7.289 1 11a195.987 195.987 0 0 1-13.5 14 7450.163 7450.163 0 0 1-1.5-122l-103 120a45.255 45.255 0 0 1-7.5-8.5c3.97-11.277 10.636-20.611 20-28 7.225-2.193 13.392-6.026 18.5-11.5l10-22A189.513 189.513 0 0 1 89.5 100c5.185-4.221 9.019-9.388 11.5-15.5 1.915-7.926 5.082-15.26 9.5-22a395.336 395.336 0 0 0 24-11.5c5.313-5.113 8.646-11.28 10-18.5z"/><path style="opacity:1" fill="#fe9900" d="M44.5 45.5c3.93.907 3.93 2.074 0 3.5-1.574.699-2.907.365-4-1 1.82-.2 3.153-1.034 4-2.5z"/><path style="opacity:1" fill="#fe9900" d="M33.5 51.5c-.11-.617-.444-1.117-1-1.5 3.673-1.687 7.173-1.187 10.5 1.5 3.697-2.43 7.53-2.596 11.5-.5-2.871.13-5.205 1.297-7 3.5l-4-2-4 2c-1.802-1.486-3.802-2.486-6-3zM52.5 71.5a106.47 106.47 0 0 1-8.5 9c-1.469 23.804-2.469 23.804-3 0a31.713 31.713 0 0 0-6.5-2c.843 1.673 2.176 2.84 4 3.5-4.053 1.94-8.053 1.773-12-.5l2-3c-3.012-.502-5.345-2.002-7-4.5 1.544-.29 2.877-.956 4-2-2.53-1.95-3.697-4.45-3.5-7.5a25.522 25.522 0 0 0 4.5 4 6.807 6.807 0 0 0 1.5-3 21.52 21.52 0 0 0 5 6c.29-1.544.956-2.877 2-4 1.256 3.55 3.256 6.55 6 9a353.132 353.132 0 0 0 2.5-22c.153 7.28.32 14.614.5 22a40.985 40.985 0 0 1 5-9c.595 1.399.428 2.732-.5 4 1.308 1.126 2.642 1.126 4 0z"/><path style="opacity:1" fill="#fe9900" d="M56.5 81.5c-.992-.172-1.658.162-2 1-3.15.289-6.15-.211-9-1.5A77.994 77.994 0 0 0 57 71.5c.59-.984.258-1.65-1-2-1.077.93-2.244 1.596-3.5 2a19.515 19.515 0 0 1 3.5-7c.483.948.65 1.948.5 3 2.544.396 4.711-.271 6.5-2 .065 2.698-1.102 4.864-3.5 6.5 1.456.423 1.956 1.256 1.5 2.5-1.916 1.428-4.083 2.428-6.5 3 1.353 1.024 2.02 2.357 2 4z"/><path style="opacity:1" fill="#006632" d="M128.5 68.5a2363.647 2363.647 0 0 1 .5 119c-20.671 15.192-43.504 19.359-68.5 12.5-11.203-3.535-21.203-9.202-30-17a8660.796 8660.796 0 0 0 98-114.5z"/><path style="opacity:1" d="M34.5 78.5c-3.6-.973-6.267-3.14-8-6.5 3.305 1.114 5.972 3.28 8 6.5z"/><path style="opacity:1" fill="#fefffe" d="M-.5 129.5c6.547 40.882 29.88 66.549 70 77h-70v-77zM165.5 131.5v75h-70c39.184-10.185 62.517-35.185 70-75z"/></svg>
